X: 26070
T: McCuskers'
R: mazurka
M: 3/4
K: Dmajor
|:(3ABC d2 A2|A>A c2 B2|B>B g2 B2|c>c e2 d2|
A>A d2 A2|A>A c2 B2|(3BBB g2 B2|(3ccc e2 d2:|
|:f>a b2 a2|f>e d>e f2|d>f c2 e2|c>e d2 f2|
a2 b2 a2|(3ffe d>e f2|(3ddf c2 e2|(3cce d2 d2:|

